X:1
T:Title
%%score { ( 1 3 ) | ( 2 4 ) }
L:1/8
Q:1/4=100
M:4/4
K:G
V:1 treble nm="Grand Piano"
V:3 treble 
V:2 bass 
V:4 bass 
V:1
 [DB]3 [Ec] [DB][CDF][B,DA][B,^DG] | [G,EG]4 [DF]2 E2 | D3 G GGFG | [FA]4 [Ac]4 | %4
w: Ira~D.~Sankey * * * * *||||
 [DGB]3 [EGc] [DGB][CDF][B,DA][B,^DG] | [G,EG]4 [DF]2 E2 | %6
w: ||
 [F,CD]3 [G,B,E][K:treble] [A,CF][EFc] [DFB]>[CFA] | [B,G]6 z2 | %8
w: ||
 [CFA]3 [B,G] [A,DF][A,EG][DFA][DAc] | B4 d4 | d3 d ^cde[EGc] | [Fd]4 [Ac]4 | B3 d cB[CEA][G,E] | %13
w: |||||
 [G,DG]4 [DF]2 E2 | [F,CD]3 [G,B,E][K:treble] [A,CF][EFc] [DFB]>[CFA] | [G,B,G]6 z2 |] %16
w: |||
V:2
 [G,,G,]3 [G,,G,] [G,,G,]A,,B,,B,, | C,4 C,2 [E,C]2 | [G,B,]3 [G,B,D] [G,B,D][B,D][A,CD][G,B,D] | %3
 D,4 F,4 | G,3 G, G,,A,,B,,B,, | C,4 z2 C2 | D,3 D, D,D, D,>D, | G,6 z2 | D,3 D, D,D,D,F, | %9
 [G,DG]4 [G,B,G]4 | [A,DF]3 [A,DF] [A,EG][A,DF][K:bass][A,,A,^CG][A,,A,] | D4- [F,D]4 | %12
 [G,DG]3 [G,B,=F] [G,CE][G,DF][K:bass]C,C, | B,,4 z2 C2 | D,3 D, D,D, D,>D, | G,,6 z2 |] %16
V:3
 x8 | z4 G,4 | x8 | D8 | x8 | z4 G,4 | x4[K:treble] x4 | x8 | x8 | x8 | x8 | x8 | x8 | z4 G,4 | %14
 x4[K:treble] x4 | x8 |] %16
V:4
 x8 | x8 | x8 | x8 | x8 | z4 C,4 | x8 | x8 | x8 | x8 | x6[K:bass] x2 | D,4 z4 | x6[K:bass] x2 | %13
 z4 C,4 | x8 | x8 |] %16

